; generated by Slic3r 1.2.9 on 2017-07-28 at 16:12:15

; external perimeters extrusion width = 0.50mm
; perimeters extrusion width = 0.52mm
; infill extrusion width = 0.52mm
; solid infill extrusion width = 0.52mm
; top infill extrusion width = 0.52mm

M107
M104 S205 ; set temperature
G28 ; home all axes
G1 Z5 F5000 ; lift nozzle

M109 S205 ; wait for temperature to be reached
G21 ; set units to millimeters
G90 ; use absolute coordinates
M82 ; use absolute distances for extrusion
G92 E0
G1 Z0.500 F7800.000
G1 E-2.00000 F2400.00000
G92 E0
G1 X-0.336 Y13.564 F7800.000
G1 E2.00000 F2400.00000
G1 X-3.205 Y13.493 E3.63071 F1800.000
G1 X-4.800 Y13.265 E4.54639
G1 X-28.870 Y6.886 E18.69785
G1 X-30.099 Y6.431 E19.44291
G1 X-30.554 Y6.212 E19.72977
G1 X-32.458 Y4.852 E21.05944
G1 X-33.797 Y2.934 E22.38911
G1 X-34.418 Y0.678 E23.71878
G1 X-34.248 Y-1.655 E25.04845
G1 X-33.308 Y-3.798 E26.37812
G1 X-31.705 Y-5.502 E27.70779
G1 X-30.565 Y-6.198 E28.46672
G1 X-30.111 Y-6.419 E28.75385
G1 X-28.871 Y-6.879 E29.50507
G1 X-4.801 Y-13.265 E43.65755
G1 X-3.205 Y-13.493 E44.57398
G1 X13.529 Y-13.909 E54.08702
G1 X15.981 Y-13.523 E55.49752
G1 X21.895 Y-11.449 E59.05951 F1800.000
G1 X24.020 Y-10.246 E60.44752
G1 X27.842 Y-7.070 E63.27157
G1 X29.211 Y-5.532 E64.44160
G1 X30.125 Y-4.130 E65.39258
G1 X30.580 Y-3.316 E65.92248
G1 X30.755 Y-2.946 E66.15559
G1 X31.383 Y-0.692 E67.48526
G1 X31.221 Y1.642 E68.81493
G1 X30.753 Y2.958 E69.60815
G1 X30.578 Y3.328 E69.84094
G1 X30.124 Y4.139 E70.36958
G1 X29.210 Y5.540 E71.32006
G1 X27.842 Y7.076 E72.48853
G1 X24.021 Y10.252 E75.31274
G1 X21.887 Y11.459 E76.70570
G1 X15.973 Y13.524 E80.26616
G1 X13.529 Y13.908 E81.67165
G1 X-0.261 Y13.566 E89.51133
G1 E87.51133 F2400.00000
G92 E0
G1 X-2.039 Y-0.898 F7800.000
G1 E2.00000 F2400.00000
G1 X-1.782 Y-2.634 E2.99691 F1800.000
G1 X-1.831 Y-4.320 E3.95607
G1 X2.342 Y-4.332 E6.32805
G1 X7.432 Y-4.238 E9.22082
G1 X8.617 Y-4.174 E9.89551
G1 X13.132 Y-3.852 E12.46800
G1 X13.131 Y-3.789 E12.50389
G1 X18.272 Y-2.951 E15.46372
G1 X18.370 Y-2.825 E15.55461
G1 X21.072 Y-0.716 E17.50264
G1 X21.038 Y-0.240 E17.77379
G1 X21.314 Y0.003 E17.98226
G1 X21.038 Y0.245 E18.19068
G1 X21.072 Y0.722 E18.46252
G1 X18.371 Y2.833 E20.41035
G1 X18.272 Y2.959 E20.50147
G1 X13.128 Y3.797 E23.46363
G1 X13.129 Y3.860 E23.49901
G1 X8.617 Y4.182 E26.06967
G1 X7.433 Y4.246 E26.74329
G1 X2.344 Y4.332 E29.63598
G1 X-1.831 Y4.320 E32.00891
G1 X-1.782 Y2.641 E32.96363
G1 X-2.039 Y0.908 E33.95939
G1 X-3.666 Y0.265 E34.95373
G1 X-3.872 Y0.233 E35.07172
G1 X-3.872 Y-0.225 E35.33241
G1 X-3.668 Y-0.257 E35.44965
G1 X-2.109 Y-0.871 E36.40163
G1 X-2.847 Y-1.540 F7800.000
G1 X-2.676 Y-2.686 E37.06027 F1800.000
G1 X-2.751 Y-5.211 E38.49548
G1 X2.349 Y-5.225 E41.39391
G1 X7.464 Y-5.131 E44.30110
G1 X8.673 Y-5.065 E44.98921
G1 X14.034 Y-4.682 E48.04349
G1 X14.032 Y-4.546 E48.12075
G1 X18.482 Y-3.822 E50.68304
G1 X18.795 Y-3.732 E50.86825
G1 X19.006 Y-3.461 E51.06301
G1 X21.995 Y-1.127 E53.21849
G1 X21.960 Y-0.618 E53.50872
G1 X22.664 Y0.003 E54.04220
G1 X21.960 Y0.623 E54.57543
G1 X21.995 Y1.134 E54.86608
G1 X19.007 Y3.469 E57.02167
G1 X18.796 Y3.739 E57.21623
G1 X18.481 Y3.829 E57.40222
G1 X14.030 Y4.555 E59.96537
G1 X14.032 Y4.690 E60.04219
G1 X8.673 Y5.073 E63.09539
G1 X7.465 Y5.139 E63.78284
G1 X2.350 Y5.225 E66.68995
G1 X-2.751 Y5.211 E69.58897
G1 X-2.676 Y2.694 E71.01974
G1 X-2.846 Y1.549 E71.67763
G1 X-3.902 Y1.132 E72.32262
G1 X-6.388 Y0.745 E73.75230
G1 X-6.388 Y-0.737 E74.59484
G1 X-3.903 Y-1.124 E76.02407
G1 X-2.916 Y-1.512 E76.62658
G1 X-3.654 Y-2.182 F7800.000
G1 X-3.571 Y-2.739 E76.94695 F1800.000
G1 X-3.662 Y-5.835 E78.70699
G1 X-2.943 Y-6.103 E79.14322
G1 X2.356 Y-6.118 E82.15487
G1 X7.496 Y-6.023 E85.07647
G1 X8.729 Y-5.956 E85.77799
G1 X14.201 Y-5.565 E88.89578
G1 X14.201 Y-6.148 E89.22716
G1 X14.937 Y-5.736 E89.70698
G1 X14.933 Y-5.304 E89.95255
G1 X18.678 Y-4.694 E92.10900
G1 X19.321 Y-4.509 E92.48901
G1 X19.642 Y-4.097 E92.78598
G1 X22.919 Y-1.538 E95.14890
G1 X22.881 Y-0.995 E95.45822
G1 X24.014 Y0.004 E96.31670
G1 X22.881 Y1.002 E97.17475
G1 X22.919 Y1.545 E97.48421
G1 X19.642 Y4.105 E99.84754
G1 X19.321 Y4.516 E100.14407
G1 X18.678 Y4.702 E100.52445
G1 X14.932 Y5.312 E102.68134
G1 X14.937 Y5.745 E102.92707
G1 X14.201 Y6.160 E103.40774
G1 X14.201 Y5.573 E103.74167
G1 X8.729 Y5.964 E106.85949
G1 X7.497 Y6.031 E107.56077
G1 X2.357 Y6.118 E110.48230
G1 X-2.943 Y6.103 E113.49405
G1 X-3.662 Y5.834 E113.93053
G1 X-3.571 Y2.747 E115.68569
G1 X-3.654 Y2.190 E116.00571
G1 X-4.138 Y1.999 E116.30136
G1 X-7.104 Y1.537 E118.00775
G1 X-7.280 Y0.812 E118.43187
G1 X-7.280 Y-0.804 E119.35023
G1 X-7.104 Y-1.529 E119.77435
G1 X-4.138 Y-1.991 E121.48059
G1 X-3.724 Y-2.154 E121.73364
G1 X-3.154 Y-2.195 F7800.000
G1 X-7.780 Y0.004 F7800.000
G1 X-25.581 Y0.004 E131.85013 F1800.000
G1 E129.85013 F2400.00000
G92 E0
G1 X-6.780 Y0.752 F7800.000
G1 X-3.409 Y0.004 F7800.000
G1 X2.106 Y0.004 F7800.000
G1 X0.294 Y2.217 F7800.000
G1 X-0.254 Y2.801 F7800.000
G1 X-0.840 Y3.773 F7800.000
G1 E2.00000 F2400.00000
G1 X-1.259 Y3.355 E2.33636 F1800.000
G1 X-1.281 Y2.069 E3.06761
G1 X0.426 Y3.777 E4.44082
G1 X1.693 Y3.780 E5.16129
G1 X-2.338 Y-0.251 E8.40342
G1 X-1.537 Y-0.714 E8.92926
G1 X2.952 Y3.776 E12.53981
G1 X4.194 Y3.755 E13.24643
G1 X-1.374 Y-1.814 E17.72475
G1 X-1.235 Y-2.938 E18.36915
G1 X5.437 Y3.734 E23.73506
G1 X6.679 Y3.713 E24.44168
G1 X-0.808 Y-3.775 E30.46332
G1 X0.451 Y-3.778 E31.17975
G1 X7.910 Y3.680 E37.17816
G1 X9.103 Y3.610 E37.85771
G1 X1.711 Y-3.782 E43.80230
G1 X2.989 Y-3.767 E44.52891
G1 X10.282 Y3.525 E50.39418
G1 X11.461 Y3.441 E51.06638
G1 X4.276 Y-3.744 E56.84474
G1 X5.563 Y-3.720 E57.57680
G1 X12.633 Y3.350 E63.26258
G1 X13.719 Y3.173 E63.88850
G1 X6.850 Y-3.696 E69.41282
G1 X8.172 Y-3.638 E70.16523
G1 X14.805 Y2.996 E75.50019
G1 X15.892 Y2.819 E76.12611
G1 X9.528 Y-3.544 E81.24367
G1 X10.889 Y-3.447 E82.01937
G1 X16.978 Y2.642 E86.91639
G1 X18.064 Y2.465 E87.54231
G1 X12.259 Y-3.341 E92.21134
G1 X13.768 Y-3.095 E93.08084
G1 X18.778 Y1.915 E97.11007
G1 X19.487 Y1.361 E97.62189
G1 X15.277 Y-2.849 E101.00778
G1 X16.786 Y-2.603 E101.87729
G1 X20.196 Y0.807 E104.61985
G1 X19.981 Y-0.671 E105.46910
G1 X20.495 Y-0.158 E105.88195
M104 S200 ; set temperature
G1 Z1.000 F7800.000
G1 X21.601 Y-2.644 F7800.000
G1 X22.896 Y-2.508 E106.22812 F3600.000
G1 X25.887 Y-2.195 E106.98009 F3600.000
G1 X28.111 Y-1.630 E107.55380
G1 X28.847 Y-1.504 E107.74038
G1 X29.974 Y-1.086 E108.04093
G1 X30.243 Y-1.030 E108.10958
G1 X31.037 Y-0.403 E108.36252
G1 X31.185 Y0.004 E108.47065
G1 X31.038 Y0.409 E108.57846
G1 X30.242 Y1.037 E108.83179
G1 X29.974 Y1.094 E108.90025
G1 X28.848 Y1.510 E109.20056
G1 X28.112 Y1.636 E109.38724
G1 X25.894 Y2.200 E109.95938
G1 X24.973 Y2.284 E110.19054
G1 X22.888 Y2.521 E110.71523
G1 X21.611 Y2.666 E111.05689 F3600.000
G1 X22.000 Y3.215 E111.23571
G1 X22.527 Y3.957 E111.46321 F3600.000
G1 X22.077 Y4.531 E111.64538
G1 X18.512 Y5.561 E112.57326
G1 X17.743 Y5.687 E112.76808
G1 X15.481 Y6.256 E113.35116
G1 X13.450 Y6.582 E113.89805 F3600.000
G1 X8.695 Y6.898 E115.08949 F3600.000
G1 X2.338 Y7.249 E116.68129
G1 X-2.949 Y7.180 E118.00314
G1 X-3.873 Y7.045 E118.23644
G1 X-4.576 Y6.726 E118.42953
G1 X-8.660 Y5.201 E119.51936
G1 X-8.639 Y4.488 E119.69776
G1 X-8.962 Y2.316 E120.24660
G1 X-10.702 Y1.629 E120.71431
G1 X-13.496 Y1.194 E121.42141
G1 X-16.373 Y0.842 E122.14583
G1 X-17.083 Y0.756 E122.33621 F3600.000
G1 X-18.527 Y0.825 E122.72044
G1 X-21.523 Y0.970 E123.47048 F3600.000
G1 X-21.859 Y0.948 E123.55453
G1 X-22.489 Y1.002 E123.71260
G1 X-27.086 Y1.194 E124.86286
G1 X-28.842 Y1.061 E125.30321
G1 X-30.819 Y0.003 E125.86385
G1 X-28.841 Y-1.060 E126.42533
G1 X-27.086 Y-1.195 E126.86527
G1 X-22.490 Y-0.994 E128.01545
G1 X-21.859 Y-0.940 E128.17378
G1 X-21.523 Y-0.962 E128.25782
G1 X-18.532 Y-0.818 E129.00651
G1 X-17.083 Y-0.748 E129.39224 F3600.000
G1 X-16.366 Y-0.836 E129.58445
G1 X-13.496 Y-1.187 E130.30720 F3600.000
G1 X-10.702 Y-1.622 E131.01408
G1 X-8.962 Y-2.307 E131.48172
G1 X-8.639 Y-4.481 E132.03109
G1 X-8.660 Y-5.197 E132.21022
G1 X-4.471 Y-6.758 E133.32790
G1 X-4.036 Y-7.079 E133.46297
G1 X-2.979 Y-7.173 E133.72811
G1 X2.334 Y-7.241 E135.05655
G1 X8.696 Y-6.890 E136.64948
G1 X13.450 Y-6.578 E137.84062
G1 X15.479 Y-6.251 E138.38704 F3600.000
G1 X17.742 Y-5.684 E138.97021 F3600.000
G1 X18.511 Y-5.555 E139.16515
G1 X22.077 Y-4.528 E140.09292
G1 X22.528 Y-3.952 E140.27589
G1 X22.000 Y-3.207 E140.50390
G1 X21.644 Y-2.705 E140.66762 F3600.000
G1 X22.354 Y-2.985 F7800.000
G1 X25.961 Y-2.607 E141.57411 F3600.000
G1 X28.198 Y-2.039 E142.15122
G1 X28.956 Y-1.909 E142.34336
G1 X30.091 Y-1.489 E142.64592
G1 X30.425 Y-1.418 E142.73134
G1 X31.323 Y-0.710 E143.01718
G1 X31.379 Y-0.686 E143.03250
G1 X31.629 Y0.004 E143.21598
G1 X31.379 Y0.693 E143.39916
G1 X31.322 Y0.717 E143.41463
G1 X30.425 Y1.426 E143.70058
G1 X30.091 Y1.496 E143.78589
G1 X28.956 Y1.916 E144.08827
G1 X28.198 Y2.044 E144.28047
G1 X25.965 Y2.612 E144.85663
G1 X25.016 Y2.700 E145.09489
G1 X22.361 Y3.001 E145.76285
G1 X23.048 Y3.969 E146.05950
G1 X22.323 Y4.894 E146.35327
G1 X18.604 Y5.969 E147.32109
G1 X17.828 Y6.097 E147.51758
G1 X15.651 Y6.652 E148.07922
G1 X14.520 Y6.838 E148.36582
G1 X13.450 Y7.001 E148.65369 F3600.000
G1 X8.720 Y7.314 E149.83872 F3600.000
G1 X2.346 Y7.667 E151.43467
G1 X-2.982 Y7.597 E152.76694
G1 X-3.992 Y7.450 E153.02189
G1 X-4.736 Y7.113 E153.22622
G1 X-9.086 Y5.488 E154.38726
G1 X-9.057 Y4.512 E154.63116
G1 X-9.339 Y2.616 E155.11046
G1 X-10.812 Y2.034 E155.50626
G1 X-13.554 Y1.608 E156.20001
G1 X-17.099 Y1.175 E157.09282
G1 X-21.527 Y1.388 E158.20109
G1 X-21.854 Y1.367 E158.28319
G1 X-22.462 Y1.419 E158.43571
G1 X-27.093 Y1.612 E159.59437
G1 X-28.962 Y1.471 E160.06288
G1 X-31.703 Y0.003 E160.84031
G1 X-28.961 Y-1.470 E161.61859
G1 X-27.093 Y-1.613 E162.08687
G1 X-22.463 Y-1.411 E163.24552
G1 X-21.854 Y-1.359 E163.39820
G1 X-21.527 Y-1.380 E163.48030
G1 X-17.099 Y-1.167 E164.58860
G1 X-13.554 Y-1.601 E165.48146
G1 X-10.812 Y-2.028 E166.17508
G1 X-9.339 Y-2.607 E166.57078
G1 X-9.057 Y-4.506 E167.05053
G1 X-9.086 Y-5.484 E167.29523
G1 X-4.671 Y-7.129 E168.47312
G1 X-4.189 Y-7.484 E168.62280
G1 X-3.001 Y-7.590 E168.92117
G1 X2.344 Y-7.659 E170.25746
G1 X8.721 Y-7.307 E171.85409
G1 X13.450 Y-6.996 E173.03892
G1 X14.516 Y-6.833 E173.32556 F3600.000
G1 X15.652 Y-6.646 E173.61339 F3600.000
G1 X17.828 Y-6.093 E174.17471
G1 X18.603 Y-5.963 E174.37130
G1 X22.323 Y-4.892 E175.33895
G1 X23.048 Y-3.964 E175.63350
G1 X22.398 Y-3.046 E175.91466
G1 X23.086 Y-3.316 F7800.000
G1 X26.032 Y-3.007 E176.65533 F3600.000
G1 X28.282 Y-2.435 E177.23574
G1 X29.061 Y-2.302 E177.43327
G1 X30.203 Y-1.879 E177.73779
G1 X30.601 Y-1.795 E177.83948
G1 X31.530 Y-1.062 E178.13532
G1 X31.712 Y-0.986 E178.18466
G1 X32.060 Y0.004 E178.44687
G1 X31.712 Y0.992 E178.70867
G1 X31.530 Y1.069 E178.75808
G1 X30.601 Y1.803 E179.05408
G1 X30.203 Y1.887 E179.15573
G1 X29.061 Y2.309 E179.46013
G1 X28.282 Y2.441 E179.65767
G1 X26.034 Y3.013 E180.23773
G1 X25.057 Y3.103 E180.48289
G1 X23.088 Y3.327 E180.97822
G1 X23.553 Y3.981 E181.17886
G1 X22.561 Y5.247 E181.58089
G1 X18.693 Y6.365 E182.58747
G1 X17.912 Y6.494 E182.78557
G1 X15.735 Y7.048 E183.34721
G1 X13.530 Y7.402 E183.90542
G1 X13.450 Y7.407 E183.92545 F1800.000
G1 X8.745 Y7.719 E185.10426 F3600.000
G1 X2.355 Y8.072 E186.70422
G1 X-3.014 Y8.002 E188.04660
G1 X-4.107 Y7.843 E188.32257
G1 X-4.891 Y7.487 E188.53779
G1 X-9.500 Y5.766 E189.76791
G1 X-9.464 Y4.536 E190.07535
G1 X-9.706 Y2.907 E190.48719
G1 X-10.919 Y2.428 E190.81324
G1 X-13.609 Y2.009 E191.49403
G1 X-17.114 Y1.581 E192.37656
G1 X-21.530 Y1.794 E193.48191
G1 X-21.850 Y1.773 E193.56212
G1 X-22.436 Y1.824 E193.70927
G1 X-27.100 Y2.018 E194.87607
G1 X-29.077 Y1.869 E195.37190
G1 X-32.561 Y0.004 E196.35964
G1 X-29.077 Y-1.867 E197.34823
G1 X-27.100 Y-2.019 E197.84400
G1 X-22.437 Y-1.816 E199.01086
G1 X-21.850 Y-1.765 E199.15807
G1 X-21.530 Y-1.786 E199.23828
G1 X-17.114 Y-1.573 E200.34364
G1 X-13.609 Y-2.002 E201.22622
G1 X-10.919 Y-2.421 E201.90697
G1 X-9.706 Y-2.899 E202.23289
G1 X-9.464 Y-4.530 E202.64509
G1 X-9.500 Y-5.762 E202.95340
G1 X-4.866 Y-7.489 E204.18971
G1 X-4.338 Y-7.878 E204.35357
G1 X-3.021 Y-7.995 E204.68416
G1 X2.354 Y-8.064 E206.02807
G1 X8.745 Y-7.711 E207.62829
G1 X13.450 Y-7.402 E208.80700
G1 X13.549 Y-7.396 E208.83183 F1800.000
G1 X15.735 Y-7.042 E209.38532 F3600.000
G1 X17.911 Y-6.490 E209.94675
G1 X18.693 Y-6.359 E210.14495
G1 X22.561 Y-5.245 E211.15127
G1 X23.553 Y-3.975 E211.55407
G1 X23.129 Y-3.377 E211.73747
G1 X21.850 Y-3.409 F7800.000
G1 X21.452 Y-3.595 E211.90797 F3600.000
G1 X21.563 Y-4.286 E212.17953
G1 X22.019 Y-4.073 E212.37465
G1 X24.413 Y-1.872 F7800.000
G1 X24.059 Y-2.037 E212.74175 F3600.000
G1 X23.496 Y-1.176 E213.70672
G1 X23.833 Y-1.018 E214.05540
G1 X23.498 Y-0.148 F7800.000
G1 X23.711 Y0.304 E214.20114 F3600.000
G1 E212.20114 F2400.00000
G92 E0
G1 X25.176 Y2.018 F7800.000
G1 E2.00000 F2400.00000
G1 X23.876 Y-0.727 E2.88665 F3600.000
G1 X24.268 Y-1.279 E3.08432
G1 X25.802 Y1.961 E4.13081
G1 X26.391 Y1.826 E4.30728
G1 X24.659 Y-1.832 E5.48874
G1 X25.232 Y-2.002 E5.66312
G1 X26.974 Y1.678 E6.85152
G1 X27.557 Y1.530 E7.02709
G1 X25.933 Y-1.900 E8.13485
G1 X26.676 Y-1.712 E8.35844
G1 X28.142 Y1.385 E9.35844
G1 X28.746 Y1.282 E9.53741
G1 X27.418 Y-1.523 E10.44330
G1 X28.152 Y-1.353 E10.66316
G1 X29.307 Y1.088 E11.45145
G1 X29.863 Y0.882 E11.62442
G1 X28.884 Y-1.185 E12.29223
G1 X29.676 Y-0.892 E12.53880
G1 X30.390 Y0.615 E13.02534
G1 X30.592 Y-0.336 E13.30923
G1 X30.826 Y0.158 E13.46897
G1 X24.052 Y2.038 F7800.000
G1 X24.408 Y1.872 E13.83023 F3600.000
G1 X23.833 Y1.027 E14.76979
G1 X23.496 Y1.184 E15.11154
G1 X23.016 Y1.884 F7800.000
G1 X23.328 Y1.571 E15.23034 F1200.000
G1 X23.289 Y1.013 E15.38112
G1 X21.930 Y2.371 E15.89835
G1 X21.469 Y2.832 F7800.000
G1 X20.280 Y4.021 E16.35109 F1200.000
G1 X21.221 Y2.482 F7800.000
G1 X18.599 Y5.104 E17.34912 F1200.000
G1 X17.886 Y5.219 E17.54362
G1 X23.213 Y-0.108 E19.57157
G1 X23.250 Y0.454 E19.72310
G1 X21.255 Y2.448 E20.48221
G1 X23.258 Y-0.751 F7800.000
G1 X17.173 Y5.335 E22.79884 F1200.000
G1 X16.459 Y5.450 E22.99335
G1 X23.303 Y-1.394 E25.59865
G1 X23.191 Y-1.879 E25.73271
G1 X15.746 Y5.566 E28.56660
G1 X15.026 Y5.688 E28.76317
G1 X22.855 Y-2.141 E31.74333
G1 X22.433 Y-2.318 E31.86631
G1 X14.307 Y5.809 E34.95973
G1 X13.588 Y5.930 E35.15596
G1 X21.892 Y-2.374 E38.31702
G1 X21.351 Y-2.431 E38.46350
G1 X12.869 Y6.051 E41.69220
G1 X12.220 Y6.102 E41.86756
G1 X21.512 Y-3.190 E45.40469
G1 X21.176 Y-3.452 E45.51935
G1 X11.579 Y6.145 E49.17255
G1 X10.939 Y6.187 E49.34537
G1 X20.840 Y-3.714 E53.11462
G1 X20.505 Y-3.977 E53.22929
G1 X10.298 Y6.230 E57.11460
G1 X9.786 Y6.144 E57.25428
G1 X20.169 Y-4.239 E61.20657
G1 X19.833 Y-4.501 E61.32123
G1 X9.747 Y5.585 E65.16055
G1 X9.708 Y5.026 E65.31138
G1 X19.497 Y-4.763 E69.03772
G1 X19.162 Y-5.025 E69.15238
G1 X9.669 Y4.467 E72.76576
G1 X9.630 Y3.908 E72.91658
G1 X18.654 Y-5.116 E76.35173
G1 X18.140 Y-5.199 E76.49208
G1 X9.591 Y3.349 E79.74612
G1 X9.013 Y3.330 E79.90200
G1 X17.625 Y-5.283 E83.18042
G1 X17.110 Y-5.366 E83.32077
G1 X8.370 Y3.375 E86.64796
G1 X7.738 Y3.409 E86.81836
G1 X16.595 Y-5.449 E90.19023
G1 X16.081 Y-5.532 E90.33058
G1 X7.113 Y3.435 E93.74415
G1 X6.505 Y3.446 E93.90788
G1 X15.566 Y-5.615 E97.35703
G1 X15.257 Y-5.904 F7800.000
G1 X5.897 Y3.456 E100.92014 F1200.000
G1 X5.289 Y3.466 E101.08388
G1 X14.696 Y-5.942 E104.66504
G1 X14.136 Y-5.979 E104.81632
G1 X4.680 Y3.476 E108.41552
G1 X4.072 Y3.487 E108.57926
G1 X13.575 Y-6.016 E112.19651
G1 X13.014 Y-6.053 E112.34779
G1 X3.464 Y3.497 E115.98308
G1 X2.856 Y3.507 E116.14682
G1 X12.453 Y-6.090 E119.80016
G1 X11.892 Y-6.127 E119.95144
G1 X9.642 Y-3.877 E120.80814
G1 X9.686 Y-4.519 E120.98152
G1 X11.332 Y-6.164 E121.60774
G1 X10.771 Y-6.202 E121.75902
G1 X9.731 Y-5.162 E122.15476
G1 X9.776 Y-5.805 E122.32815
G1 X10.210 Y-6.239 E122.49341
G1 X9.094 Y-3.329 F7800.000
G1 X2.248 Y3.517 E125.09951 F1200.000
G1 X2.045 Y3.720 F7800.000
G1 X-0.752 Y6.517 E126.16438 F1200.000
G1 X-0.154 Y6.517 E126.32533
G1 X2.122 Y4.241 E127.19205
G1 X2.200 Y4.761 E127.33371
